components/Common/Svg/svgs/conferencing.svg

<svg width="40" height="40" viewBox="0 0 40 40" fill="none" xmlns="http://www.w3.org/2000/svg">
<path fill-rule="evenodd" clip-rule="evenodd" d="M36 27.6667C36 28.6792 35.1792 29.5 34.1667 29.5H20H5.83333C4.82081 29.5 4 28.6792 4 27.6667V7.83334C4 6.82082 4.82081 6.00001 5.83333 6.00001H34.1667C35.1792 6.00001 36 6.82082 36 7.83334V27.6667ZM34.1667 31.5H21V35.1668H25.6678C26.2201 35.1668 26.6678 35.6145 26.6678 36.1668C26.6678 36.7191 26.2201 37.1668 25.6678 37.1668H14.3345C13.7822 37.1668 13.3345 36.7191 13.3345 36.1668C13.3345 35.6145 13.7822 35.1668 14.3345 35.1668H19V31.5H5.83333C3.71624 31.5 2 29.7838 2 27.6667V7.83334C2 5.71625 3.71624 4.00001 5.83333 4.00001H34.1667C36.2838 4.00001 38 5.71625 38 7.83334V27.6667C38 29.7838 36.2838 31.5 34.1667 31.5ZM20.2464 8.00001C17.0708 8.00001 14.4965 10.5744 14.4965 13.75C14.4965 15.5605 15.3334 17.1755 16.6406 18.2292C13.4049 19.6001 11.1109 22.7604 11.0005 26.4703C10.984 27.0223 11.4182 27.4831 11.9703 27.4996C12.5223 27.516 12.9831 27.0818 12.9996 26.5298C13.1157 22.6279 16.3159 19.5 20.2463 19.5C24.1767 19.5 27.3769 22.6279 27.493 26.5298C27.5094 27.0818 27.9703 27.516 28.5223 27.4996C29.0744 27.4831 29.5086 27.0223 29.4921 26.4703C29.3817 22.7605 27.0878 19.6001 23.8521 18.2292C25.1593 17.1755 25.9963 15.5605 25.9963 13.75C25.9963 10.5744 23.422 8.00001 20.2464 8.00001ZM16.4965 13.75C16.4965 11.6789 18.1754 10 20.2464 10C22.3174 10 23.9963 11.6789 23.9963 13.75C23.9963 15.8211 22.3174 17.5 20.2464 17.5C18.1754 17.5 16.4965 15.8211 16.4965 13.75Z" fill="#161616"/>
</svg>

<svg width="40" height="40" viewBox="0 0 40 40" fill="none" xmlns="http://www.w3.org/2000/svg"><path fill-rule="evenodd" clip-rule="evenodd" d="M36 27.667c0 1.012-.82 1.833-1.833 1.833H5.833A1.833 1.833 0 0 1 4 27.667V7.833C4 6.821 4.82 6 5.833 6h28.334C35.179 6 36 6.82 36 7.833v19.834ZM34.167 31.5H21v3.667h4.668a1 1 0 1 1 0 2H14.335a1 1 0 1 1 0-2H19V31.5H5.833A3.833 3.833 0 0 1 2 27.667V7.833A3.833 3.833 0 0 1 5.833 4h28.334A3.833 3.833 0 0 1 38 7.833v19.834a3.833 3.833 0 0 1-3.833 3.833ZM20.247 8a5.75 5.75 0 0 0-3.606 10.23A9.253 9.253 0 0 0 11 26.47a1 1 0 1 0 1.999.06 7.25 7.25 0 0 1 14.493 0 1 1 0 0 0 2-.06 9.253 9.253 0 0 0-5.64-8.24A5.75 5.75 0 0 0 20.246 8Zm-3.75 5.75a3.75 3.75 0 1 1 7.5 0 3.75 3.75 0 0 1-7.5 0Z" fill="#161616"/></svg>
